X:204
T:Robertson's Reel
M:4/4
L:1/8
K:A
|: c2 Bc e2 cB | ABAF E2 AB | c2 Bc ecAc | B4 B2 AB |
| c2 Bc e2 cB | ABAF E2 AB | cBce BABc |1 A4 A2 AB:|2 A4 A2|
cd \
  |:  e2 ce a2 ga | fecd e2 cd | e2 ce a2 ga | f4 z2 e2 |
  |  a2 A2 A2 cB | ABAF E2 AB | cBce BABc |1 A4 A2 cd:|2 A4 A2 AB|
